X:1
T:Sporting Paddy
T:Old Wheels of the World
N: from the fiddle playing of Sally Sloane
Z:Ian Hayden 2017
L:1/8
M:4/4
K:Dmaj
|:e2 c<A e2 c<A|G2 GF EFG2|A2AB =cBcd|eaag edd2:|
|:ea (ag) ea (ag)|eg (gf) eg (gf)|a2(ge) d2cd| eaag edd2 :|
